X: 9593
T: Davy Maguire's
R: reel
M: 4/4
K: Dmajor
ag|fdAd ~f3a|geBe gbag|fdAd f2fe|defd e2dg|
fdAd ~f3a|gebg eg~g2|fdAd f2fe|defd e2df|
a2ag fgaf|efgB eg~g2|~a3g fdec|defd efd2|
abag fgaf|efgB eg~g2|a2ag fdec|defd efd2|

